assets/fc/fc-flow-chart.svg

<svg xmlns="http://www.w3.org/2000/svg" width="100%" height="100%" viewBox="0 0 48 48"><path fill="#CFD8DC" d="M35 36h4V22H26v-9h-4v9H9v14h4V26h9v10h4V26h9z"/><path fill="#3F51B5" d="M17 6h14v10H17z"/><path fill="#00BCD4" d="M32 32h10v10H32zM6 32h10v10H6zM19 32h10v10H19z"/></svg>

<svg xmlns="http://www.w3.org/2000/svg" width="100%" height="100%" viewBox="0 0 48 48"><path fill="#CFD8DC" d="M35 36L39 36 39 22 26 22 26 13 22 13 22 22 9 22 9 36 13 36 13 26 22 26 22 36 26 36 26 26 35 26z"/><path fill="#3F51B5" d="M17 6H31V16H17z"/><path fill="#00BCD4" d="M32 32H42V42H32zM6 32H16V42H6zM19 32H29V42H19z"/></svg>
